X: 03
T: Auld Jock the Tinker
C: Ian Thow
R: jig
N: Suggested tune for The Brudenell Jig
B: RSCDS "A Second Book of Graded Scottish Country Dances" (Graded 2) p.7
Z: 2011 John Chambers <jc:trillian.mit.edu>
M: 6/8
L: 1/8
K: A
E |: "A"AGA "C#/A"ecA | "D"FDA "A"E2"E"E | "F#m"AGA "C#/A"ecA | "E"GBB "G#/E7"B2E |
"A"AGA "C#m"CEG | "D"FDA "E7"E2D | "A"CEA "E7"BAG |1 "A"A3- A2E :|2 "A"A3- Ac"E7"d ||
|: "A"ec"D"f "C#/A"ecA | "A"ecA "C#m"E3 | "Bm"d3 "E"GBd | "G#/E7"fed "A"c3 |
"Em"e3 "A7"cea | "D"fdA "Bm"F3 | "E7"EGe "G#/E7"dcB |1 "A"A3 Acd :|2 "A"A3- A2 |]
